images/phone-smartphone-symbolic.svg

<?xml version="1.0" encoding="UTF-8" standalone="no"?>
<svg
   xmlns:dc="http://purl.org/dc/elements/1.1/"
   xmlns:cc="http://creativecommons.org/ns#"
   xmlns:rdf="http://www.w3.org/1999/02/22-rdf-syntax-ns#"
   xmlns:svg="http://www.w3.org/2000/svg"
   xmlns="http://www.w3.org/2000/svg"
   viewBox="0 0 96 96.000001"
   version="1.1"
   id="svg4874"
   height="96"
   width="96">
  <defs
     id="defs4876" />
  <metadata
     id="metadata4879">
    <rdf:RDF>
      <cc:Work
         rdf:about="">
        <dc:format>image/svg+xml</dc:format>
        <dc:type
           rdf:resource="http://purl.org/dc/dcmitype/StillImage" />
        <dc:title />
      </cc:Work>
    </rdf:RDF>
  </metadata>
  <g
     transform="translate(67.857146,-78.50504)"
     id="layer1">
    <g
       style="display:inline"
       id="g4845"
       transform="matrix(0,-1,-1,0,373.50506,516.50504)">
      <g
         id="g4778"
         transform="matrix(-0.9996045,0,0,1,575.94296,-611.00001)">
        <g
           style="display:inline"
           id="g4780"
           transform="matrix(-1,0,0,1,575.99999,611)">
          <rect
             transform="scale(-1,1)"
             y="345.36221"
             x="-438.00244"
             height="96"
             width="96.037987"
             id="rect4782"
             style="color:#000000;display:inline;overflow:visible;visibility:visible;fill:none;stroke:none;stroke-width:4;marker:none;enable-background:accumulate" />
          <path
             id="path4208"
             transform="matrix(0,-1,-1.0003957,0,438.00245,441.36222)"
             d="M 35.976562 2 C 30.943803 2.058177 27.26124 1.883499 24.25 3.5449219 C 22.74438 4.3756332 21.553141 5.7787071 20.894531 7.5332031 C 20.235931 9.2876991 19.998047 11.369641 19.998047 14 L 19.998047 82.001953 C 19.998047 84.632312 20.235931 86.712301 20.894531 88.466797 C 21.553141 90.221293 22.74438 91.628273 24.25 92.458984 C 27.26124 94.120407 30.943803 93.941823 35.976562 94 L 35.988281 94 L 60.009766 94 L 60.021484 94 C 65.054244 93.941813 68.736807 94.120407 71.748047 92.458984 C 73.253667 91.628273 74.444916 90.221293 75.103516 88.466797 C 75.762116 86.712301 76 84.632312 76 82.001953 L 76 14 C 76 11.369641 75.762116 9.2876991 75.103516 7.5332031 C 74.444916 5.7787071 73.253667 4.3756332 71.748047 3.5449219 C 68.736807 1.883499 65.054244 2.058177 60.021484 2 L 60.009766 2 L 35.988281 2 L 35.976562 2 z M 24.078125 12 L 71.919922 12 C 71.965915 12.606228 71.998047 13.255513 71.998047 14 L 71.998047 76 L 24 76 L 24 14 C 24 13.255513 24.032132 12.606228 24.078125 12 z M 48 80 A 4.9999957 4.9999956 0 0 1 53 85 A 4.9999957 4.9999956 0 0 1 48 90 A 4.9999957 4.9999956 0 0 1 43 85 A 4.9999957 4.9999956 0 0 1 48 80 z "
             style="color:#000000;font-style:normal;font-variant:normal;font-weight:normal;font-stretch:normal;font-size:medium;line-height:normal;font-family:sans-serif;text-indent:0;text-align:start;text-decoration:none;text-decoration-line:none;text-decoration-style:solid;text-decoration-color:#000000;letter-spacing:normal;word-spacing:normal;text-transform:none;direction:ltr;block-progression:tb;writing-mode:lr-tb;baseline-shift:baseline;text-anchor:start;white-space:normal;clip-rule:nonzero;display:inline;overflow:visible;visibility:visible;opacity:1;isolation:auto;mix-blend-mode:normal;color-interpolation:sRGB;color-interpolation-filters:linearRGB;solid-color:#000000;solid-opacity:1;fill:#4d4d4d;fill-opacity:1;fill-rule:nonzero;stroke:none;stroke-width:4.00079155;stroke-linecap:butt;stroke-linejoin:miter;stroke-miterlimit:4;stroke-dasharray:none;stroke-dashoffset:0;stroke-opacity:1;marker:none;color-rendering:auto;image-rendering:auto;shape-rendering:auto;text-rendering:auto;enable-background:accumulate" />
        </g>
      </g>
    </g>
  </g>
</svg>

<?xml version="1.0" encoding="UTF-8"?>
<!-- Created with Inkscape (http://www.inkscape.org/) -->
<svg width="96" height="96" version="1.1" viewBox="0 0 96 96" xmlns="http://www.w3.org/2000/svg" xmlns:cc="http://creativecommons.org/ns#" xmlns:dc="http://purl.org/dc/elements/1.1/" xmlns:rdf="http://www.w3.org/1999/02/22-rdf-syntax-ns#">
 <metadata>
  <rdf:RDF>
   <cc:Work rdf:about="">
    <dc:format>image/svg+xml</dc:format>
    <dc:type rdf:resource="http://purl.org/dc/dcmitype/StillImage"/>
   </cc:Work>
  </rdf:RDF>
 </metadata>
 <g transform="translate(67.857 -78.505)">
  <g transform="matrix(0 -1 -1 0 373.51 516.51)">
   <g transform="matrix(-.9996 0 0 1 575.94 -611)">
    <g transform="matrix(-1 0 0 1 576 611)">
     <rect transform="scale(-1,1)" x="-438" y="345.36" width="96.038" height="96" color="#000000" fill="none"/>
     <path transform="matrix(0 -1 -1.0004 0 438 441.36)" d="m35.977 2c-5.0328 0.058177-8.7153-0.1165-11.727 1.5449-1.5056 0.83071-2.6969 2.2338-3.3555 3.9883-0.6586 1.7545-0.89648 3.8364-0.89648 6.4668v68.002c0 2.6304 0.23788 4.7103 0.89648 6.4648 0.65861 1.7545 1.8498 3.1615 3.3555 3.9922 3.0112 1.6614 6.6938 1.4828 11.727 1.541h0.011719 24.021 0.011718c5.0328-0.058187 8.7153 0.12041 11.727-1.541 1.5056-0.83071 2.6969-2.2377 3.3555-3.9922s0.89648-3.8345 0.89648-6.4648v-68.002c0-2.6304-0.23788-4.7123-0.89648-6.4668s-1.8498-3.1576-3.3555-3.9883c-3.0112-1.6614-6.6938-1.4867-11.727-1.5449h-0.011718-24.021-0.011719zm-11.898 10h47.842c0.045993 0.60623 0.078125 1.2555 0.078125 2v62h-47.998v-62c0-0.74449 0.032132-1.3938 0.078125-2zm23.922 68a5 5 0 0 1 5 5 5 5 0 0 1-5 5 5 5 0 0 1-5-5 5 5 0 0 1 5-5z" color="#000000" color-rendering="auto" image-rendering="auto" shape-rendering="auto" solid-color="#000000" style="block-progression:tb;isolation:auto;mix-blend-mode:normal;text-decoration-color:#000000;text-decoration-line:none;text-decoration-style:solid;text-indent:0;text-transform:none;white-space:normal"/>
    </g>
   </g>
  </g>
 </g>
</svg>
